assets/fc/fc-generic-sorting-desc.svg

<svg xmlns="http://www.w3.org/2000/svg" width="100%" height="100%" viewBox="0 0 48 48"><path fill="#2196F3" d="M6 38h4v4H6zM6 30h12v4H6zM6 22h20v4H6zM6 14h28v4H6zM6 6h36v4H6z"/></svg>

<svg xmlns="http://www.w3.org/2000/svg" width="100%" height="100%" viewBox="0 0 48 48"><path fill="#2196F3" d="M6 38H10V42H6zM6 30H18V34H6zM6 22H26V26H6zM6 14H34V18H6zM6 6H42V10H6z"/></svg>
